img/samsung-pay.svg

<svg width="24" height="24" viewBox="0 0 24 24" fill="none" xmlns="http://www.w3.org/2000/svg">
<path fill-rule="evenodd" clip-rule="evenodd" d="M21.33 2.688C22.725 4.168 23.522 6.19 23.807 8.411C24.091 10.546 23.977 11.998 23.977 11.998C23.977 11.998 24.063 13.45 23.778 15.585C23.494 17.805 22.696 19.828 21.301 21.308C19.821 22.703 17.799 23.5 15.579 23.785C13.443 24.041 11.991 23.985 11.991 23.985C11.991 23.985 10.54 24.069 8.40399 23.785C6.18398 23.5 4.16199 22.703 2.68199 21.308C1.28699 19.828 0.488985 17.806 0.204985 15.585C-0.0520148 13.45 0.00498519 11.998 0.00498519 11.998C0.00498519 11.998 -0.0520148 10.546 0.232985 8.411C0.517985 6.19 1.31499 4.169 2.70999 2.688C4.18999 1.293 6.21198 0.496003 8.43298 0.211003C10.568 -0.044997 12.02 0.012003 12.02 0.012003C12.02 0.012003 13.472 -0.072997 15.607 0.212003C17.827 0.496003 19.849 1.293 21.33 2.688ZM6.58198 8.496H4.44699V14.788H5.61399V12.995H6.58198C6.92399 12.995 7.23699 12.937 7.49299 12.823C7.74899 12.71 8.00598 12.539 8.20498 12.34C8.41376 12.1386 8.57855 11.8962 8.68898 11.628C8.80299 11.343 8.85898 11.058 8.85898 10.745C8.86032 10.4427 8.80257 10.1431 8.68898 9.863C8.57848 9.59483 8.41369 9.35242 8.20498 9.151C8.00362 8.94223 7.7612 8.77743 7.49299 8.667C7.20385 8.55081 6.89457 8.49304 6.58299 8.497L6.58198 8.496ZM5.58599 11.884V9.55H6.49599C6.66798 9.55 6.83799 9.578 6.98099 9.635C7.12064 9.69393 7.24661 9.78109 7.35099 9.891C7.43599 10.005 7.52099 10.119 7.57899 10.261C7.63599 10.404 7.66399 10.546 7.66399 10.717C7.66399 10.887 7.63599 11.03 7.57899 11.173C7.52777 11.3129 7.44822 11.4407 7.34532 11.5484C7.24242 11.6561 7.11839 11.7414 6.98099 11.799C6.82634 11.8572 6.6622 11.886 6.49699 11.884H5.58599ZM10.653 14.617C10.967 14.731 11.251 14.788 11.565 14.788C11.906 14.788 12.191 14.731 12.475 14.617C12.76 14.475 13.017 14.304 13.187 14.076V14.788H14.355V9.72H13.187V10.375C12.988 10.175 12.76 10.005 12.476 9.891C12.187 9.77191 11.8765 9.71402 11.564 9.721C11.223 9.721 10.938 9.777 10.625 9.891C10.34 10.005 10.055 10.147 9.82798 10.375C9.59108 10.6038 9.39792 10.8739 9.25799 11.172C9.11598 11.485 9.05898 11.856 9.05898 12.254C9.05898 12.653 9.14498 13.023 9.28698 13.336C9.42898 13.649 9.62899 13.906 9.85699 14.133C10.084 14.333 10.369 14.503 10.653 14.617ZM12.362 13.621C12.191 13.706 11.992 13.735 11.764 13.735C11.5598 13.7299 11.3578 13.6914 11.166 13.621L11.162 13.619C10.992 13.534 10.823 13.449 10.682 13.308C10.5613 13.1579 10.4564 12.9957 10.369 12.824C10.2875 12.6453 10.2485 12.4503 10.255 12.254C10.255 12.055 10.283 11.856 10.369 11.685C10.426 11.515 10.539 11.372 10.682 11.229C10.8202 11.0927 10.985 10.9862 11.166 10.916C11.366 10.831 11.565 10.802 11.764 10.802C11.964 10.802 12.162 10.831 12.362 10.945C12.561 11.03 12.703 11.115 12.846 11.258C12.988 11.372 13.073 11.543 13.159 11.714C13.244 11.884 13.273 12.084 13.273 12.283C13.273 12.482 13.244 12.681 13.159 12.853C13.0813 13.0214 12.9754 13.1752 12.846 13.308C12.703 13.45 12.533 13.536 12.362 13.621ZM17.401 13.194L15.977 9.749H14.753L16.803 14.561L15.75 17.094H16.945L19.935 9.749H18.71L17.401 13.194Z" fill="#1E4BC6"/>
</svg>

<svg xmlns="http://www.w3.org/2000/svg" width="24" height="24" fill="none" viewBox="0 0 24 24">
  <g clip-path="url(#a)">
    <path fill="#1E4BC6" fill-rule="evenodd" d="M21.33 2.688c1.395 1.48 2.192 3.502 2.477 5.723.284 2.135.17 3.587.17 3.587s.086 1.452-.199 3.587c-.284 2.22-1.082 4.243-2.477 5.723-1.48 1.395-3.502 2.192-5.722 2.477-2.136.256-3.588.2-3.588.2s-1.451.084-3.587-.2c-2.22-.285-4.242-1.082-5.722-2.477-1.395-1.48-2.193-3.502-2.477-5.723-.257-2.135-.2-3.587-.2-3.587s-.057-1.452.228-3.587C.518 6.19 1.315 4.169 2.71 2.688 4.19 1.293 6.212.496 8.433.211 10.568-.045 12.02.012 12.02.012s1.452-.085 3.587.2c2.22.284 4.242 1.081 5.723 2.476ZM6.582 8.496H4.447v6.292h1.167v-1.793h.968c.342 0 .655-.058.911-.172.256-.113.513-.284.712-.483a2.1 2.1 0 0 0 .484-.712c.114-.285.17-.57.17-.883a2.32 2.32 0 0 0-.17-.882 2.103 2.103 0 0 0-.484-.712 2.1 2.1 0 0 0-.712-.484 2.36 2.36 0 0 0-.91-.17Zm-.996 3.388V9.55h.91c.172 0 .342.028.485.085a1.1 1.1 0 0 1 .37.256c.085.114.17.228.228.37.057.143.085.285.085.456 0 .17-.028.313-.085.456a1.082 1.082 0 0 1-.598.626 1.329 1.329 0 0 1-.484.085h-.911Zm5.067 2.733c.314.114.598.171.912.171.341 0 .626-.057.91-.171.285-.142.542-.313.712-.541v.712h1.168V9.72h-1.168v.655c-.199-.2-.427-.37-.711-.484a2.261 2.261 0 0 0-.912-.17c-.341 0-.626.056-.939.17-.285.114-.57.256-.797.484a2.707 2.707 0 0 0-.57.797c-.142.313-.199.684-.199 1.082 0 .399.086.769.228 1.082.142.313.342.57.57.797.227.2.512.37.796.484Zm1.709-.996c-.171.085-.37.114-.598.114a1.87 1.87 0 0 1-.598-.114l-.004-.002c-.17-.085-.339-.17-.48-.311a2.801 2.801 0 0 1-.313-.484 1.273 1.273 0 0 1-.114-.57c0-.199.028-.398.114-.569.057-.17.17-.313.313-.456a1.42 1.42 0 0 1 .484-.313c.2-.085.399-.114.598-.114.2 0 .398.029.598.143.199.085.341.17.484.313.142.114.227.285.313.456.085.17.114.37.114.569 0 .199-.029.398-.114.57a1.63 1.63 0 0 1-.313.455c-.143.142-.313.228-.484.313Zm5.039-.427-1.424-3.445h-1.224l2.05 4.812-1.053 2.533h1.195l2.99-7.345H18.71l-1.31 3.445Z" clip-rule="evenodd"/>
  </g>
  <defs>
    <clipPath id="a">
      <path fill="#fff" d="M0 0h24v24H0z"/>
    </clipPath>
  </defs>
</svg>
